X:5100
T:Reinlnder
M:4/4
O:Norway
R:Reinlnder
Z:Richard Robinson 
%%TUNEURL: http://www.leeds.ac.uk/music/Info/RRTuneBk/gettune/000008ec.html
%%ID:000008ec
K:D
AG |\
F2FD FAdF | GAGF G2ed | c2cA ceac \
|1 dedc d2 :|2 d6 || f2 | \
fafd A2df | a2gf g3e | egec A2ce | g2fe f3f |\
fafd A2df | a2gf gbba | gfed ceac | d6 |]
